X: 14
T: Apples In Winter
Z: leprecawn
S: https://thesession.org/tunes/299#setting46648
R: jig
M: 6/8
L: 1/8
K: Edor
|:BEE dEE|BAG FGE|D3 FDF|ABc ded|
BEE BAB|def g2 e|fdB AGF|GEE E3:|
|:efe edB|~g2 e fdB|~ded dAF|DFA def|
[1 efe edB|def g2a|bgb afa|gee e2:|
[2 edB def|gba g2e|fdB AGF|GEE E3||

